assets/logos/icons/steps.svg

<svg xmlns="http://www.w3.org/2000/svg" width="24" height="24" viewBox="0 0 24 24">
  <path fill="#492F5C" fill-rule="evenodd" d="M16.9424,17.2431 L13.0004,19.4321 L13.0004,11.8711 L19.0004,8.5501 L19.0004,13.7481 C19.0004,15.1991 18.2124,16.5391 16.9424,17.2431 L16.9424,17.2431 Z M5.0004,13.7481 L5.0004,8.5061 L11.0004,11.8671 L11.0004,19.4321 L7.0574,17.2431 C5.7884,16.5391 5.0004,15.1991 5.0004,13.7481 L5.0004,13.7481 Z M10.0584,4.5031 C10.6514,4.1741 11.3224,4.0001 12.0004,4.0001 C12.6774,4.0001 13.3484,4.1741 13.9414,4.5031 L18.0544,6.7871 L12.0034,10.1381 L5.9844,6.7641 L10.0584,4.5031 Z M19.9684,5.5621 L14.9124,2.7541 C14.0054,2.2511 13.0034,2.0001 12.0004,2.0001 C10.9974,2.0001 9.9944,2.2511 9.0884,2.7541 L4.0314,5.5621 C3.3944,5.9151 3.0004,6.5861 3.0004,7.3131 L3.0004,13.7481 C3.0004,15.9271 4.1814,17.9341 6.0874,18.9921 L11.0274,21.7351 C11.6324,22.0711 12.3674,22.0711 12.9724,21.7351 L17.9134,18.9921 C19.8184,17.9341 21.0004,15.9271 21.0004,13.7481 L21.0004,7.3131 C21.0004,6.5861 20.6054,5.9151 19.9684,5.5621 L19.9684,5.5621 Z"/>
</svg>

<svg height="24" viewBox="0 0 24 24" width="24" xmlns="http://www.w3.org/2000/svg"><path d="m16.9424 17.2431-3.942 2.189v-7.561l6-3.321v5.198c0 1.451-.788 2.791-2.058 3.495zm-11.942-3.495v-5.242l6 3.361v7.565l-3.943-2.189c-1.269-.704-2.057-2.044-2.057-3.495zm5.058-9.245c.593-.329 1.264-.503 1.942-.503.677 0 1.348.174 1.941.503l4.113 2.284-6.051 3.351-6.019-3.374zm9.91 1.059-5.056-2.808c-.907-.503-1.909-.754-2.912-.754s-2.006.251-2.912.754l-5.057 2.808c-.637.353-1.031 1.024-1.031 1.751v6.435c0 2.179 1.181 4.186 3.087 5.244l4.94 2.743c.605.336 1.34.336 1.945 0l4.941-2.743c1.905-1.058 3.087-3.065 3.087-5.244v-6.435c0-.727-.395-1.398-1.032-1.751z" fill="#492f5c" fill-rule="evenodd"/></svg>
